X:35
T:Flowing Bowl
M:2/4
L:1/8
K:D
%%MIDI channel 1
%%MIDI program 72
%%MIDI transpose 8
%%MIDI grace 1/8
%%MIDI ratio 3 1
A/A/|dA FA|ddd d/d/|ee ea|(f2 d) A/A/|DA FA|ddd d/d/|ee ea|d2-d::
z|f>f ff|gg LG2|e>e ee|ff Lf2|d>d dd|eB ed/d/|cA Bc|d2-d:|
%%%newpage
